components/2.0/icon/icons/icon-alert-triangle-22px.svg

<?xml version="1.0" encoding="UTF-8" standalone="no"?>
<svg width="22px" height="22px" viewBox="0 0 22 22" version="1.1" xmlns="http://www.w3.org/2000/svg" xmlns:xlink="http://www.w3.org/1999/xlink" xmlns:sketch="http://www.bohemiancoding.com/sketch/ns">
    <!-- Generator: Sketch 3.4.4 (17249) - http://www.bohemiancoding.com/sketch -->
    <title>icon-alert-triangle-22px</title>
    <desc>Created with Sketch.</desc>
    <defs></defs>
    <g id="22px" stroke="none" stroke-width="1" fill="none" fill-rule="evenodd" sketch:type="MSPage">
        <g id="icon-alert-triangle-22px" sketch:type="MSArtboardGroup" fill="#ED6058">
            <path d="M12,14 L10,14 L10,8 L12,8 L12,14 Z M12,17 L10,17 L10,15 L12,15 L12,17 Z M19.968,16.721 L12.625,3.109 C11.812,1.649 10.482,1.61 9.669,3.07 L2.325,16.741 C1.513,18.201 2.276,20 4.021,20 L18.272,20 C20.018,20 20.781,18.181 19.968,16.721 L19.968,16.721 Z" id="alert-triangle" sketch:type="MSShapeGroup"></path>
        </g>
    </g>
</svg>

<svg width="22" height="22" xmlns="http://www.w3.org/2000/svg"><path d="M12 14h-2V8h2v6zm0 3h-2v-2h2v2zm8-.3L12.6 3c-.8-1.4-2-1.4-3 0L2.4 16.8C1.5 18.2 2.3 20 4 20h14.3c1.7 0 2.5-1.8 1.7-3.3z" fill="#ED6058" fill-rule="evenodd"/></svg>
